static/assets/img/icons/theme/devices/phone.svg

<svg height="24" viewBox="0 0 24 24" width="24" xmlns="http://www.w3.org/2000/svg"><g fill="none" fill-rule="evenodd"><path d="m0 0h24v24h-24z" opacity="0"/><g fill="#000"><path d="m7.13888889 4v15h9.72222221v-15zm.69444444-3h8.33333337c1.4062806 0 2.0833333.98121694 2.0833333 2.5v17c0 1.5187831-.6770527 2.5-2.0833333 2.5h-8.33333337c-1.40628061 0-2.08333333-.9812169-2.08333333-2.5v-17c0-1.51878306.67705272-2.5 2.08333333-2.5z" fill-rule="nonzero"/><path d="m7 4v15h10v-15z" opacity=".3"/><circle cx="12" cy="21" r="1"/></g></g></svg>

<svg width="24px" height="24px" viewBox="0 0 24 24" version="1.1" xmlns="http://www.w3.org/2000/svg" xmlns:xlink="http://www.w3.org/1999/xlink">
    <title>Icon For Phone</title>
    <g stroke="none" stroke-width="1" fill="none" fill-rule="evenodd">
        <rect opacity="0" x="0" y="0" width="24" height="24"></rect>
        <path d="M7.13888889,4 L7.13888889,19 L16.8611111,19 L16.8611111,4 L7.13888889,4 Z M7.83333333,1 L16.1666667,1 C17.5729473,1 18.25,1.98121694 18.25,3.5 L18.25,20.5 C18.25,22.0187831 17.5729473,23 16.1666667,23 L7.83333333,23 C6.42705272,23 5.75,22.0187831 5.75,20.5 L5.75,3.5 C5.75,1.98121694 6.42705272,1 7.83333333,1 Z" fill="#000000" fill-rule="nonzero"></path>
        <polygon fill="#000000" opacity="0.3" points="7 4 7 19 17 19 17 4"></polygon>
        <circle fill="#000000" cx="12" cy="21" r="1"></circle>
    </g>
</svg>
